; generated by PrusaSlicer 2.4.0+x64 on 2022-03-01 at 20:09:51 UTC


;
;

;
;
; 

; external perimeters extrusion width = 0.45mm
; perimeters extrusion width = 0.45mm
; infill extrusion width = 0.45mm
; solid infill extrusion width = 0.45mm
; top infill extrusion width = 0.40mm
; support material extrusion width = 0.35mm
; first layer extrusion width = 0.42mm

M73 P0 R10
M201 X2500 Y2500 Z400 E5000 ; sets maximum accelerations, mm/sec^2
M203 X180 Y180 Z12 E80 ; sets maximum feedrates, mm/sec
M204 P1250 R1250 T2500 ; sets acceleration (P, T) and retract acceleration (R), mm/sec^2
M205 X8.00 Y8.00 Z2.00 E10.00 ; sets the jerk limits, mm/sec
M205 S0 T0 ; sets the minimum extruding and travel feed rate, mm/sec
M107
;TYPE:Custom
G90 ; use absolute coordinates
M83 ; extruder relative mode
M104 S170 ; set extruder temp for bed leveling
M140 S60 ; set bed temp
M109 R170 ; wait for bed leveling temp
M190 S60 ; wait for bed temp
M204 T1250 ; set travel acceleration
G28 ; home all without mesh bed level
G29 ; mesh bed leveling 
M204 T2500 ; restore travel acceleration
M104 S215 ; set extruder temp
G92 E0
G1 Y-2 X179 F2400
G1 Z3 F720
M109 S215 ; wait for extruder temp

; intro line
G1 X170 F1000
G1 Z0.2 F720
G1 X110 E8 F900
G1 X40 E10 F700
G92 E0

M221 S95 ; set flow
G21 ; set units to millimeters
G90 ; use absolute coordinates
M83 ; use relative distances for extrusion
M900 K0.2 ; Filament gcode LA 1.5
; ; Filament gcode LA 1.0
M107
;LAYER_CHANGE
;Z:0.2
;HEIGHT:0.2
;BEFORE_LAYER_CHANGE
G92 E0.0
;0.2


M73 P1 R10
G1 E-3.2 F4200
M73 P2 R10
G1 Z.2 F720
;AFTER_LAYER_CHANGE
;0.2
G1 Z.4
G1 X78.599 Y82.464 F9000
G1 Z.2 F720
G1 E3.2 F2400
M204 P800
;TYPE:Skirt/Brim
;WIDTH:0.42
G1 F1200
G1 X79.488 Y82.073 E.03045
G1 X89.023 Y79.765 E.3076
G1 X89.671 Y79.688 E.02045
G1 X102.172 Y79.688 E.39196
G1 X103.589 Y80.081 E.04612
G1 X104.602 Y81.147 E.04612
G1 X104.926 Y82.442 E.04186
G1 X104.926 Y90.329 E.24729
G1 X104.666 Y91.498 E.03755
G1 X102.358 Y96.42 E.17042
G1 X101.401 Y97.536 E.04612
G1 X100.512 Y97.927 E.03045
G1 X90.977 Y100.235 E.3076
G1 X90.329 Y100.312 E.02045
M73 P3 R10
G1 X77.828 Y100.312 E.39196
G1 X76.411 Y99.919 E.04612
G1 X75.398 Y98.853 E.04612
G1 X75.074 Y97.558 E.04186
G1 X75.074 Y89.671 E.24729
G1 X75.335 Y88.502 E.03755
G1 X77.642 Y83.58 E.17042
G1 X78.56 Y82.509 E.04424
M204 P1000
G1 X78.851 Y82.77 F9000
M204 P800
G1 F1200
G1 X78.892 Y82.723 E.00195
G1 X79.576 Y82.439 E.02322
G1 X89.112 Y80.132 E.3076
G1 X89.671 Y80.065 E.01765
G1 X102.172 Y80.065 E.39196
G1 X103.479 Y80.457 E.04278
G1 X104.355 Y81.503 E.04278
G1 X104.549 Y82.442 E.03008
G1 X104.549 Y90.329 E.24729
G1 X104.324 Y91.338 E.03241
G1 X102.017 Y96.26 E.17042
G1 X101.108 Y97.277 E.04278
G1 X100.424 Y97.561 E.02322
G1 X90.888 Y99.868 E.3076
G1 X90.329 Y99.935 E.01765
G1 X77.828 Y99.935 E.39196
G1 X76.521 Y99.543 E.04278
G1 X75.645 Y98.497 E.04278
G1 X75.451 Y97.558 E.03008
G1 X75.451 Y89.671 E.24729
G1 X75.676 Y88.662 E.03241
G1 X77.983 Y83.74 E.17042
G1 X78.811 Y82.814 E.03895
M204 P1000
; printing object spring v1.stl id:0 copy 0
G1 E-2.24 F4200
;WIPE_START
M73 P4 R10
G1 F7200
G1 X78.892 Y82.723 E-.06768
G1 X79.576 Y82.439 E-.41044
G1 X80.337 Y82.255 E-.43388
;WIPE_END
G1 E-.048 F4200
G1 Z.4 F720
G1 X80.873 Y90 F9000
G1 Z.2 F720
G1 E3.2 F2400
M204 P800
;TYPE:Support material interface
;WIDTH:0.35
G1 F1200
G1 X80.873 Y92.307 E.05891
G1 X81.38 Y92.307 E.01295
G1 X81.38 Y90 E.05891
G1 X81.887 Y90 E.01295
G1 X81.887 Y92.307 E.05891
G1 X82.394 Y92.307 E.01295
G1 X82.394 Y90.41 E.04845
G1 X82.306 Y90 E.01069
M204 P1000
G1 X82.639 Y91.08 F9000
M204 P800
G1 F1200
G1 X82.901 Y91.497 E.01257
G1 X82.901 Y92.307 E.02068
G1 X83.079 Y92.307 E.00454
G1 X83.079 Y94.614 E.05891
G1 X83.408 Y94.614 E.00841
G1 X83.408 Y91.916 E.0689
G1 X83.515 Y91.971 E.00308
G1 X83.802 Y92.055 E.00764
G1 X83.915 Y92.054 E.00288
G1 X83.915 Y94.614 E.06537
G1 X84.422 Y94.614 E.01295
G1 X84.422 Y91.824 E.07124
G1 X84.518 Y91.748 E.00312
G1 X84.684 Y91.54 E.0068
M204 P1000
G1 X84.573 Y90.645 F9000
M204 P800
;TYPE:Support material
;WIDTH:0.42
G1 F1200
G1 X84.524 Y90.988 E.01086
G1 X84.375 Y91.347 E.01219
G1 X84.253 Y91.498 E.0061
G1 X84.167 Y91.558 E.00328
G1 X84.062 Y91.628 E.00396
G1 X83.867 Y91.691 E.00642
G1 X83.64 Y91.628 E.00739
G1 X83.42 Y91.503 E.00792
G1 X83.204 Y91.295 E.00941
G1 X83.017 Y91.016 E.01052
G1 X83.319 Y91.28 E.01257
G1 X83.664 Y91.427 E.01176
G1 X83.862 Y91.422 E.00618
G1 X84.193 Y91.261 E.01156
G1 X84.275 Y91.194 E.00331
G1 X84.504 Y90.886 E.01205
G1 X84.562 Y90.7 E.00611
M204 P1000
G1 X84.929 Y90 F9000
M204 P800
;TYPE:Support material interface
;WIDTH:0.35
G1 F1200
G1 X84.929 Y94.614 E.11782
G1 X85.386 Y94.614 E.01166
G1 X85.386 Y92.307 E.05891
G1 X85.436 Y92.307 E.00129
G1 X85.436 Y85.386 E.17673
G1 X85.943 Y85.386 E.01295
G1 X85.943 Y92.307 E.17673
G1 X86.45 Y92.307 E.01295
G1 X86.45 Y85.386 E.17673
G1 X86.958 Y85.386 E.01295
G1 X86.958 Y88.24 E.07289
G1 X87.252 Y88.031 E.00924
G1 X87.465 Y87.973 E.00561
G1 X87.465 Y85.386 E.06607
G1 X87.972 Y85.386 E.01295
G1 X87.972 Y88.016 E.06715
G1 X88.263 Y88.177 E.00849
G1 X88.479 Y88.379 E.00756
G1 X88.479 Y85.386 E.07642
G1 X88.986 Y85.386 E.01295
G1 X88.986 Y89.264 E.09903
G1 X89.114 Y89.706 E.01174
G1 X89.174 Y90.069 E.00939
G1 X89.195 Y90.434 E.00934
G1 X89.151 Y90.97 E.01374
G1 X89.081 Y91.232 E.00693
G1 X88.986 Y91.458 E.00625
G1 X88.986 Y94.614 E.08059
G1 X89.493 Y94.614 E.01295
G1 X89.493 Y85.386 E.23564
G1 X90 Y85.386 E.01295
G1 X90 Y94.614 E.23564
G1 X90.507 Y94.614 E.01295
M73 P4 R9
G1 X90.507 Y85.386 E.23564
G1 X91.014 Y85.386 E.01295
M73 P5 R9
G1 X91.014 Y88.528 E.08023
G1 X90.913 Y88.769 E.00668
G1 X90.847 Y89.024 E.00671
G1 X90.819 Y89.219 E.00505
G1 X90.806 Y89.568 E.00891
G1 X90.829 Y89.933 E.00934
G1 X90.891 Y90.296 E.00939
G1 X91.014 Y90.723 E.01135
G1 X91.014 Y94.614 E.09936
G1 X91.521 Y94.614 E.01295
G1 X91.521 Y91.62 E.07646
G1 X91.734 Y91.823 E.00752
G1 X92.028 Y91.988 E.00861
G1 X92.028 Y94.614 E.06706
G1 X92.535 Y94.614 E.01295
G1 X92.535 Y92.028 E.06603
G1 X92.747 Y91.973 E.00559
G1 X93.042 Y91.761 E.00928
G1 X93.042 Y94.614 E.07285
G1 X93.55 Y94.614 E.01295
G1 X93.55 Y87.693 E.17673
G1 X94.057 Y87.693 E.01295
G1 X94.057 Y94.614 E.17673
G1 X94.564 Y94.614 E.01295
G1 X94.564 Y87.693 E.17673
G1 X94.614 Y87.693 E.00129
G1 X94.614 Y85.386 E.05891
G1 X95.071 Y85.386 E.01166
M204 P1000
G1 E-2.24 F4200
;WIPE_START
G1 F7200
G1 X94.614 Y85.386 E-.25307
G1 X94.614 Y86.575 E-.65893
;WIPE_END
G1 E-.048 F4200
G1 Z.4 F720
G1 X96.173 Y88.315 F9000
G1 Z.2 F720
G1 E3.2 F2400
M204 P800
;TYPE:Support material
;WIDTH:0.42
G1 F1200
G1 X96.365 Y88.364 E.0062
G1 X96.579 Y88.488 E.00776
G1 X96.795 Y88.696 E.00941
G1 X96.985 Y88.982 E.01078
G1 X96.746 Y88.756 E.01031
G1 X96.671 Y88.708 E.00279
G1 X96.331 Y88.574 E.01146
G1 X96.145 Y88.578 E.00586
G1 X95.816 Y88.725 E.01129
G1 X95.725 Y88.797 E.00365
G1 X95.49 Y89.117 E.01243
G1 X95.427 Y89.349 E.00752
G1 X95.473 Y89.012 E.01064
G1 X95.618 Y88.653 E.01214
G1 X95.752 Y88.487 E.0067
G1 X95.93 Y88.366 E.00675
G1 X96.118 Y88.313 E.00613
M204 P1000
G1 E-2.24 F4200
;WIPE_START
G1 F7200
G1 X95.93 Y88.366 E-.10827
G1 X95.752 Y88.487 E-.11926
G1 X95.618 Y88.653 E-.11838
G1 X95.473 Y89.012 E-.21464
G1 X95.427 Y89.349 E-.18807
G1 X95.49 Y89.117 E-.133
G1 X95.523 Y89.073 E-.03039
;WIPE_END
G1 E-.048 F4200
G1 Z.4 F720
G1 X94.809 Y90 F9000
G1 Z.2 F720
G1 E3.2 F2400
M204 P800
;TYPE:Support material interface
;WIDTH:0.35
G1 F1200
G1 X95.071 Y90 E.00667
G1 X95.071 Y85.386 E.11782
G1 X95.578 Y85.386 E.01295
G1 X95.578 Y88.166 E.07098
G1 X95.815 Y88.018 E.00712
G1 X96.085 Y87.946 E.00714
G1 X96.085 Y85.386 E.06538
G1 X96.592 Y85.386 E.01295
G1 X96.592 Y88.075 E.06867
G1 X96.81 Y88.206 E.00649
G1 X97.099 Y88.496 E.01044
G1 X97.099 Y87.693 E.02049
G1 X97.606 Y87.693 E.01295
G1 X97.606 Y89.589 E.04841
G1 X97.694 Y90 E.01073
G1 X98.113 Y90 E.01072
G1 X98.113 Y87.693 E.05891
G1 X98.62 Y87.693 E.01295
G1 X98.62 Y90 E.05891
G1 X99.127 Y90 E.01295
G1 X99.127 Y87.693 E.05891
M204 P1000
G1 E-2.24 F4200
;WIPE_START
G1 F7200
G1 X99.127 Y89.339 E-.912
;WIPE_END
G1 E-.048 F4200
G1 Z.4 F720
G1 X102.172 Y90.329 F9000
G1 Z.2 F720
G1 E3.2 F2400
M204 P800
;TYPE:Support material
;WIDTH:0.42
G1 F1200
G1 X99.865 Y90.329 E.07234
G1 X99.865 Y95.251 E.1543
G1 X91.978 Y95.251 E.24729
G1 X91.978 Y94.978 E.00855
M73 P6 R9
G1 X94.978 Y94.978 E.09406
G1 X94.978 Y90.364 E.14467
G1 X95.555 Y90.364 E.01811
G1 X95.676 Y90.48 E.00526
G1 X97.142 Y90.48 E.04597
G1 X97.232 Y90.364 E.00461
G1 X99.592 Y90.364 E.07399
G1 X99.592 Y87.329 E.09514
G1 X97.285 Y87.329 E.07234
G1 X97.285 Y85.022 E.07234
G1 X94.251 Y85.022 E.09514
G1 X94.251 Y87.329 E.07234
G1 X92.671 Y87.329 E.04953
G1 X92.671 Y85.022 E.07234
G1 X89.671 Y85.022 E.09406
G1 X89.671 Y82.442 E.08089
G1 X102.172 Y82.442 E.39196
G1 X102.172 Y90.273 E.24551
M204 P1000
G1 E-2.24 F4200
;WIPE_START
G1 F7200
G1 X102.172 Y88.627 E-.912
;WIPE_END
G1 E-.048 F4200
G1 Z.4 F720
G1 X99.217 Y95.081 F9000
G1 Z.2 F720
G1 E3.2 F2400
M204 P800
G1 F1200
G1 X99.217 Y90.703 E.13726
G1 X98.799 Y90.703 E.01314
G1 X98.799 Y94.911 E.13194
G1 X98.38 Y94.911 E.01314
G1 X98.38 Y90.703 E.13194
G1 X97.961 Y90.703 E.01314
G1 X97.961 Y94.911 E.13194
G1 X97.542 Y94.911 E.01314
G1 X97.542 Y90.703 E.13194
G1 X97.399 Y90.703 E.00447
G1 X97.309 Y90.819 E.00461
G1 X97.123 Y90.819 E.00586
G1 X97.123 Y94.911 E.1283
G1 X96.704 Y94.911 E.01314
G1 X96.704 Y90.819 E.1283
G1 X96.285 Y90.819 E.01314
G1 X96.285 Y94.911 E.1283
G1 X95.866 Y94.911 E.01314
G1 X95.866 Y90.819 E.1283
G1 X95.539 Y90.819 E.01023
G1 X95.447 Y90.73 E.00404
G1 X95.447 Y95.081 E.13642
M204 P1000
G1 E-2.24 F4200
;WIPE_START
G1 F7200
G1 X95.447 Y93.435 E-.912
;WIPE_END
G1 E-.048 F4200
G1 Z.4 F720
G1 X101.731 Y90.16 F9000
G1 Z.2 F720
G1 E3.2 F2400
M204 P800
G1 F1200
G1 X101.731 Y82.782 E.23133
G1 X101.312 Y82.782 E.01314
M73 P7 R9
G1 X101.312 Y89.99 E.22601
G1 X100.893 Y89.99 E.01314
G1 X100.893 Y82.782 E.22601
G1 X100.474 Y82.782 E.01314
G1 X100.474 Y89.99 E.22601
G1 X100.055 Y89.99 E.01314
G1 X100.055 Y82.782 E.22601
G1 X99.636 Y82.782 E.01314
G1 X99.636 Y86.99 E.13194
G1 X99.217 Y86.99 E.01314
G1 X99.217 Y82.782 E.13194
G1 X98.799 Y82.782 E.01314
G1 X98.799 Y86.99 E.13194
G1 X98.38 Y86.99 E.01314
G1 X98.38 Y82.782 E.13194
G1 X97.961 Y82.782 E.01314
G1 X97.961 Y86.99 E.13194
G1 X97.624 Y86.99 E.01054
G1 X97.624 Y84.683 E.07234
G1 X97.542 Y84.683 E.00259
G1 X97.542 Y82.782 E.05961
G1 X97.123 Y82.782 E.01314
G1 X97.123 Y84.683 E.05961
G1 X96.704 Y84.683 E.01314
G1 X96.704 Y82.782 E.05961
G1 X96.285 Y82.782 E.01314
G1 X96.285 Y84.683 E.05961
G1 X95.866 Y84.683 E.01314
G1 X95.866 Y82.782 E.05961
G1 X95.447 Y82.782 E.01314
G1 X95.447 Y84.683 E.05961
G1 X95.028 Y84.683 E.01314
G1 X95.028 Y82.782 E.05961
G1 X94.609 Y82.782 E.01314
G1 X94.609 Y84.683 E.05961
G1 X94.19 Y84.683 E.01314
G1 X94.19 Y82.782 E.05961
G1 X93.771 Y82.782 E.01314
G1 X93.771 Y86.99 E.13194
G1 X93.352 Y86.99 E.01314
G1 X93.352 Y82.782 E.13194
G1 X92.933 Y82.782 E.01314
G1 X92.933 Y84.683 E.05961
G1 X92.514 Y84.683 E.01314
G1 X92.514 Y82.782 E.05961
G1 X92.095 Y82.782 E.01314
G1 X92.095 Y84.683 E.05961
G1 X91.676 Y84.683 E.01314
G1 X91.676 Y82.782 E.05961
G1 X91.257 Y82.782 E.01314
G1 X91.257 Y84.683 E.05961
G1 X90.838 Y84.683 E.01314
G1 X90.838 Y82.782 E.05961
G1 X90.419 Y82.782 E.01314
G1 X90.419 Y84.853 E.06493
M204 P1000
G1 E-2.24 F4200
;WIPE_START
G1 F7200
G1 X90.419 Y83.207 E-.912
;WIPE_END
G1 E-.048 F4200
G1 Z.4 F720
G1 X88.022 Y85.022 F9000
G1 Z.2 F720
G1 E3.2 F2400
M204 P800
G1 F1200
G1 X85.022 Y85.022 E.09406
G1 X85.022 Y89.636 E.14467
M73 P8 R9
G1 X84.445 Y89.636 E.01811
G1 X84.324 Y89.52 E.00525
G1 X82.857 Y89.52 E.04599
G1 X82.768 Y89.636 E.0046
G1 X80.408 Y89.636 E.07399
G1 X80.408 Y92.671 E.09514
G1 X82.715 Y92.671 E.07234
G1 X82.715 Y94.978 E.07234
G1 X85.749 Y94.978 E.09514
G1 X85.749 Y92.671 E.07234
G1 X87.329 Y92.671 E.04953
G1 X87.329 Y94.978 E.07234
G1 X90.329 Y94.978 E.09406
G1 X90.329 Y97.558 E.08089
G1 X77.828 Y97.558 E.39196
G1 X77.828 Y89.671 E.24729
G1 X80.135 Y89.671 E.07234
G1 X80.135 Y84.749 E.1543
G1 X88.022 Y84.749 E.24729
G1 X88.022 Y84.966 E.00678
M204 P1000
G1 E-2.24 F4200
;WIPE_START
G1 F7200
G1 X88.022 Y84.749 E-.11979
G1 X86.593 Y84.749 E-.79221
;WIPE_END
G1 E-.048 F4200
G1 Z.4 F720
G1 X89.581 Y97.388 F9000
G1 Z.2 F720
G1 E3.2 F2400
M204 P800
G1 F1200
G1 X89.581 Y95.317 E.06493
G1 X89.162 Y95.317 E.01314
G1 X89.162 Y97.218 E.05961
G1 X88.743 Y97.218 E.01314
G1 X88.743 Y95.317 E.05961
G1 X88.324 Y95.317 E.01314
G1 X88.324 Y97.218 E.05961
G1 X87.905 Y97.218 E.01314
G1 X87.905 Y95.317 E.05961
G1 X87.486 Y95.317 E.01314
G1 X87.486 Y97.218 E.05961
G1 X87.067 Y97.218 E.01314
G1 X87.067 Y95.317 E.05961
G1 X86.99 Y95.317 E.00242
G1 X86.99 Y93.01 E.07234
G1 X86.648 Y93.01 E.01071
G1 X86.648 Y97.218 E.13194
G1 X86.229 Y97.218 E.01314
G1 X86.229 Y93.01 E.13194
G1 X86.089 Y93.01 E.0044
G1 X86.089 Y95.317 E.07234
G1 X85.81 Y95.317 E.00874
G1 X85.81 Y97.218 E.05961
G1 X85.391 Y97.218 E.01314
G1 X85.391 Y95.317 E.05961
G1 X84.972 Y95.317 E.01314
G1 X84.972 Y97.218 E.05961
G1 X84.553 Y97.218 E.01314
G1 X84.553 Y95.317 E.05961
G1 X84.134 Y95.317 E.01314
M73 P9 R9
G1 X84.134 Y97.218 E.05961
G1 X83.715 Y97.218 E.01314
G1 X83.715 Y95.317 E.05961
G1 X83.296 Y95.317 E.01314
G1 X83.296 Y97.218 E.05961
G1 X82.877 Y97.218 E.01314
G1 X82.877 Y95.317 E.05961
G1 X82.458 Y95.317 E.01314
G1 X82.458 Y97.218 E.05961
G1 X82.039 Y97.218 E.01314
G1 X82.039 Y93.01 E.13194
G1 X81.62 Y93.01 E.01314
G1 X81.62 Y97.218 E.13194
G1 X81.201 Y97.218 E.01314
G1 X81.201 Y93.01 E.13194
G1 X80.783 Y93.01 E.01314
G1 X80.783 Y97.218 E.13194
G1 X80.364 Y97.218 E.01314
G1 X80.364 Y93.01 E.13194
G1 X80.069 Y93.01 E.00925
G1 X80.069 Y90.01 E.09406
G1 X79.945 Y90.01 E.00389
G1 X79.945 Y97.218 E.22601
G1 X79.526 Y97.218 E.01314
G1 X79.526 Y90.01 E.22601
G1 X79.107 Y90.01 E.01314
G1 X79.107 Y97.218 E.22601
G1 X78.688 Y97.218 E.01314
G1 X78.688 Y90.01 E.22601
G1 X78.269 Y90.01 E.01314
G1 X78.269 Y97.388 E.23133
M204 P1000
G1 E-2.24 F4200
;WIPE_START
G1 F7200
G1 X78.269 Y95.742 E-.912
;WIPE_END
G1 E-.048 F4200
G1 Z.4 F720
G1 X84.553 Y89.467 F9000
G1 Z.2 F720
G1 E3.2 F2400
M204 P800
G1 F1200
G1 X84.553 Y85.089 E.13726
G1 X84.134 Y85.089 E.01314
G1 X84.134 Y89.181 E.1283
G1 X83.715 Y89.181 E.01314
G1 X83.715 Y85.089 E.1283
G1 X83.296 Y85.089 E.01314
G1 X83.296 Y89.181 E.1283
G1 X82.877 Y89.181 E.01314
G1 X82.877 Y85.089 E.1283
G1 X82.458 Y85.089 E.01314
G1 X82.458 Y89.297 E.13194
G1 X82.039 Y89.297 E.01314
G1 X82.039 Y85.089 E.13194
G1 X81.62 Y85.089 E.01314
G1 X81.62 Y89.297 E.13194
G1 X81.201 Y89.297 E.01314
M73 P10 R9
G1 X81.201 Y85.089 E.13194
G1 X80.783 Y85.089 E.01314
G1 X80.783 Y89.467 E.13726
M204 P1000
G1 E-2.24 F4200
;WIPE_START
G1 F7200
G1 X80.783 Y87.821 E-.912
;WIPE_END
G1 E-.048 F4200
G1 Z.4 F720
G1 X86.696 Y90.541 F9000
G1 Z.2 F720
G1 E3.2 F2400
M204 P800
;TYPE:Support material interface
;WIDTH:0.35
G1 F1200
G1 X86.831 Y90.919 E.01026
G1 X86.958 Y91.176 E.00732
G1 X86.958 Y92.307 E.02888
G1 X87.465 Y92.307 E.01295
G1 X87.465 Y91.804 E.01284
G1 X87.736 Y91.956 E.00794
G1 X87.972 Y92.03 E.00631
G1 X87.972 Y94.614 E.06598
G1 X88.479 Y94.614 E.01295
G1 X88.479 Y91.957 E.06786
G1 X88.769 Y91.764 E.0089
G1 X88.902 Y91.586 E.00566
M204 P1000
G1 X88.816 Y90.756 F9000
M204 P800
;TYPE:Support material
;WIDTH:0.42
G1 F1200
G1 X88.74 Y91.106 E.01124
G1 X88.669 Y91.279 E.00586
G1 X88.545 Y91.467 E.00705
G1 X88.505 Y91.512 E.0019
G1 X88.327 Y91.626 E.00662
G1 X88.122 Y91.687 E.0067
G1 X87.899 Y91.63 E.00723
G1 X87.681 Y91.511 E.00779
G1 X87.459 Y91.285 E.00993
G1 X87.238 Y90.933 E.01304
G1 X87.41 Y91.137 E.00838
G1 X87.561 Y91.259 E.00609
G1 X87.931 Y91.428 E.01275
G1 X88.109 Y91.424 E.00556
G1 X88.274 Y91.354 E.00564
G1 X88.523 Y91.189 E.00937
G1 X88.649 Y91.035 E.00624
G1 X88.774 Y90.797 E.00844
G1 X88.822 Y90.634 E.00531
G1 X88.819 Y90.699 E.00206
M204 P1000
G1 E-2.24 F4200
;WIPE_START
G1 F7200
G1 X88.822 Y90.634 E-.03632
G1 X88.774 Y90.797 E-.09386
G1 X88.649 Y91.035 E-.14925
G1 X88.523 Y91.189 E-.11036
G1 X88.274 Y91.354 E-.16556
G1 X88.109 Y91.424 E-.09964
G1 X87.931 Y91.428 E-.09823
