; generated by PrusaSlicer 2.4.0+x64 on 2022-03-01 at 20:17:19 UTC


;
;

;
;
; 

; external perimeters extrusion width = 0.45mm
; perimeters extrusion width = 0.45mm
; infill extrusion width = 0.45mm
; solid infill extrusion width = 0.45mm
; top infill extrusion width = 0.40mm
; support material extrusion width = 0.35mm
; first layer extrusion width = 0.42mm

M73 P0 R26
M201 X2500 Y2500 Z400 E5000 ; sets maximum accelerations, mm/sec^2
M203 X180 Y180 Z12 E80 ; sets maximum feedrates, mm/sec
M204 P1250 R1250 T2500 ; sets acceleration (P, T) and retract acceleration (R), mm/sec^2
M205 X8.00 Y8.00 Z2.00 E10.00 ; sets the jerk limits, mm/sec
M205 S0 T0 ; sets the minimum extruding and travel feed rate, mm/sec
M107
;TYPE:Custom
G90 ; use absolute coordinates
M83 ; extruder relative mode
M104 S170 ; set extruder temp for bed leveling
M140 S60 ; set bed temp
M109 R170 ; wait for bed leveling temp
M190 S60 ; wait for bed temp
M204 T1250 ; set travel acceleration
G28 ; home all without mesh bed level
G29 ; mesh bed leveling 
M204 T2500 ; restore travel acceleration
M104 S215 ; set extruder temp
G92 E0
G1 Y-2 X179 F2400
G1 Z3 F720
M109 S215 ; wait for extruder temp

; intro line
G1 X170 F1000
G1 Z0.2 F720
G1 X110 E8 F900
G1 X40 E10 F700
G92 E0

M221 S95 ; set flow
G21 ; set units to millimeters
G90 ; use absolute coordinates
M83 ; use relative distances for extrusion
M900 K0.2 ; Filament gcode LA 1.5
; ; Filament gcode LA 1.0
M107
;LAYER_CHANGE
;Z:0.2
;HEIGHT:0.2
;BEFORE_LAYER_CHANGE
G92 E0.0
;0.2


G1 E-3.2 F4200
M73 P0 R25
G1 Z.2 F720
;AFTER_LAYER_CHANGE
;0.2
G1 Z.4
G1 X88.999 Y87.858 F9000
G1 Z.2 F720
M73 P1 R25
G1 E3.2 F2400
M204 P800
;TYPE:Skirt/Brim
;WIDTH:0.42
G1 F1200
G1 X93.613 Y83.244 E.2046
G1 X95.294 Y82.548 E.05704
G1 X126.559 Y82.548 E.98029
G1 X127.622 Y82.799 E.03425
G1 X132.236 Y85.106 E.16175
G1 X132.854 Y85.551 E.02388
G1 X135.161 Y87.858 E.1023
G1 X135.857 Y89.539 E.05704
G1 X135.857 Y108.961 E.60897
G1 X135.554 Y110.124 E.03768
G1 X126.325 Y126.581 E.59158
G1 X125.933 Y127.099 E.02038
G1 X123.626 Y129.406 E.1023
G1 X121.945 Y130.102 E.05704
G1 X102.215 Y130.102 E.6186
G1 X100.535 Y129.406 E.05704
G1 X95.92 Y124.792 E.2046
G1 X95.475 Y124.174 E.02388
G1 X88.554 Y110.331 E.48525
G1 X88.303 Y109.268 E.03425
G1 X88.303 Y89.539 E.6186
G1 X88.976 Y87.914 E.05516
M204 P1000
; printing object Mobius.stl id:0 copy 0
G1 E-2.24 F4200
;WIPE_START
G1 F7200
G1 X90.136 Y86.746 E-.912
;WIPE_END
G1 E-.048 F4200
G1 Z.4 F720
G1 X105.335 Y87.868 F9000
G1 Z.2 F720
G1 E3.2 F2400
M204 P800
;TYPE:Support material interface
;WIDTH:0.35
G1 F1200
G1 X105.159 Y87.868 E.00449
G1 X105.159 Y90.175 E.05891
G1 X105.488 Y90.175 E.00841
G1 X105.488 Y87.868 E.05891
G1 X105.995 Y87.868 E.01295
G1 X105.995 Y90.175 E.05891
G1 X106.502 Y90.175 E.01295
G1 X106.502 Y87.868 E.05891
G1 X107.009 Y87.868 E.01295
G1 X107.009 Y90.175 E.05891
G1 X107.516 Y90.175 E.01295
G1 X107.516 Y87.868 E.05891
G1 X108.023 Y87.868 E.01295
G1 X108.023 Y88.622 E.01925
G1 X108.531 Y88.659 E.01298
G1 X108.531 Y87.868 E.02018
G1 X109.038 Y87.868 E.01295
G1 X109.038 Y88.717 E.02167
G1 X109.545 Y88.821 E.01322
G1 X109.545 Y87.868 E.02432
G1 X109.773 Y87.868 E.00583
G1 X109.773 Y88.878 E.02578
G1 X109.694 Y88.858 E.00209
M204 P1000
G1 X109.698 Y90.175 F9000
M204 P800
G1 F1200
G1 X109.773 Y90.175 E.00191
G1 X109.773 Y90.118 E.00148
G1 X109.545 Y90.041 E.00615
G1 X109.545 Y90.175 E.00343
G1 X109.038 Y90.175 E.01295
G1 X109.038 Y89.877 E.00763
G1 X108.531 Y89.721 E.01354
G1 X108.531 Y90.175 E.0116
G1 X108.023 Y90.175 E.01295
G1 X108.023 Y89.519 E.01676
G1 X107.762 Y89.344 E.00803
M204 P1000
G1 X108.371 Y89.015 F9000
M204 P800
;TYPE:Support material
;WIDTH:0.42
G1 F1200
G1 X108.939 Y89.068 E.01789
G1 X109.317 Y89.145 E.01209
G1 X109.181 Y89.541 E.01312
G1 X108.382 Y89.3 E.02618
G1 X108.015 Y89.076 E.01348
G1 X108.045 Y88.989 E.0029
G1 X108.315 Y89.011 E.00847
M204 P1000
G1 E-2.24 F4200
;WIPE_START
G1 F7200
G1 X108.045 Y88.989 E-.14976
G1 X108.015 Y89.076 E-.05121
G1 X108.382 Y89.3 E-.23825
G1 X109.181 Y89.541 E-.46271
G1 X109.187 Y89.524 E-.01006
;WIPE_END
G1 E-.048 F4200
G1 Z.4 F720
G1 X107.795 Y87.505 F9000
G1 Z.2 F720
G1 E3.2 F2400
M204 P800
G1 F1200
G1 X104.795 Y87.505 E.09406
G1 X104.795 Y90.539 E.09514
G1 X110.137 Y90.539 E.16748
G1 X110.137 Y90.164 E.01177
G1 X110.409 Y90.288 E.0094
G1 X110.409 Y102.347 E.37809
G1 X108.102 Y102.347 E.07234
G1 X108.102 Y104.654 E.07234
G1 X105.795 Y104.654 E.07234
G1 X105.795 Y110.303 E.17711
G1 X121.638 Y110.303 E.49673
G1 X121.638 Y110.575 E.00855
G1 X118.638 Y110.575 E.09406
G1 X118.638 Y115.917 E.16748
G1 X123.979 Y115.917 E.16748
G1 X123.979 Y112.917 E.09406
G1 X124.252 Y112.917 E.00855
G1 X124.252 Y125.418 E.39196
G1 X121.945 Y125.418 E.07234
M73 P2 R25
G1 X121.945 Y127.725 E.07234
G1 X102.215 Y127.725 E.6186
G1 X102.215 Y125.418 E.07234
G1 X99.908 Y125.418 E.07234
G1 X99.908 Y123.111 E.07234
G1 X97.601 Y123.111 E.07234
G1 X97.601 Y115.224 E.24729
G1 X100.215 Y115.224 E.08197
G1 X100.215 Y114.647 E.01808
G1 X100.517 Y114.593 E.00961
G1 X100.709 Y115.426 E.02679
G1 X100.709 Y115.707 E.00881
G1 X100.695 Y115.835 E.00406
G1 X100.607 Y115.851 E.00281
G1 X100.504 Y115.646 E.0072
G1 X100.181 Y115.723 E.01041
G1 X100.181 Y118.224 E.07842
G1 X103.215 Y118.224 E.09514
G1 X103.215 Y112.882 E.16748
G1 X100.523 Y112.882 E.08442
G1 X100.442 Y112.177 E.02227
G1 X100.381 Y111.303 E.02747
G1 X100.908 Y111.303 E.01652
G1 X100.908 Y105.961 E.16748
G1 X97.874 Y105.961 E.09514
G1 X97.874 Y109.268 E.10369
G1 X90.68 Y109.268 E.22556
G1 X90.68 Y89.539 E.6186
G1 X92.987 Y89.539 E.07234
G1 X92.987 Y87.232 E.07234
G1 X95.294 Y87.232 E.07234
G1 X95.294 Y84.925 E.07234
G1 X107.795 Y84.925 E.39196
G1 X107.795 Y87.448 E.07911
M204 P1000
G1 E-2.24 F4200
;WIPE_START
G1 F7200
G1 X107.795 Y85.802 E-.912
;WIPE_END
G1 E-.048 F4200
G1 Z.4 F720
G1 X123.811 Y125.248 F9000
G1 Z.2 F720
G1 E3.2 F2400
M204 P800
G1 F1200
G1 X123.811 Y116.256 E.28194
G1 X123.392 Y116.256 E.01314
G1 X123.392 Y125.078 E.27662
G1 X122.973 Y125.078 E.01314
G1 X122.973 Y116.256 E.27662
G1 X122.555 Y116.256 E.01314
G1 X122.555 Y125.078 E.27662
G1 X122.136 Y125.078 E.01314
G1 X122.136 Y116.256 E.27662
G1 X121.717 Y116.256 E.01314
G1 X121.717 Y125.078 E.27662
G1 X121.605 Y125.078 E.00348
G1 X121.605 Y127.386 E.07234
G1 X121.298 Y127.386 E.00965
G1 X121.298 Y116.256 E.34895
G1 X120.879 Y116.256 E.01314
G1 X120.879 Y127.386 E.34895
G1 X120.46 Y127.386 E.01314
G1 X120.46 Y116.256 E.34895
G1 X120.041 Y116.256 E.01314
G1 X120.041 Y127.386 E.34895
G1 X119.622 Y127.386 E.01314
G1 X119.622 Y116.256 E.34895
G1 X119.203 Y116.256 E.01314
G1 X119.203 Y127.386 E.34895
G1 X118.784 Y127.386 E.01314
G1 X118.784 Y116.256 E.34895
G1 X118.365 Y116.256 E.01314
G1 X118.365 Y127.386 E.34895
G1 X117.946 Y127.386 E.01314
G1 X117.946 Y110.642 E.52498
G1 X117.527 Y110.642 E.01314
M73 P3 R25
G1 X117.527 Y127.386 E.52498
G1 X117.108 Y127.386 E.01314
G1 X117.108 Y110.642 E.52498
G1 X116.689 Y110.642 E.01314
G1 X116.689 Y127.386 E.52498
G1 X116.27 Y127.386 E.01314
G1 X116.27 Y110.642 E.52498
G1 X115.851 Y110.642 E.01314
G1 X115.851 Y127.386 E.52498
G1 X115.432 Y127.386 E.01314
G1 X115.432 Y110.642 E.52498
G1 X115.013 Y110.642 E.01314
G1 X115.013 Y127.386 E.52498
G1 X114.594 Y127.386 E.01314
G1 X114.594 Y110.642 E.52498
G1 X114.175 Y110.642 E.01314
G1 X114.175 Y127.386 E.52498
G1 X113.756 Y127.386 E.01314
G1 X113.756 Y110.642 E.52498
G1 X113.337 Y110.642 E.01314
G1 X113.337 Y127.386 E.52498
G1 X112.918 Y127.386 E.01314
G1 X112.918 Y110.642 E.52498
G1 X112.499 Y110.642 E.01314
G1 X112.499 Y127.386 E.52498
G1 X112.08 Y127.386 E.01314
G1 X112.08 Y110.642 E.52498
G1 X111.661 Y110.642 E.01314
G1 X111.661 Y127.386 E.52498
G1 X111.242 Y127.386 E.01314
G1 X111.242 Y110.642 E.52498
G1 X110.823 Y110.642 E.01314
G1 X110.823 Y127.386 E.52498
G1 X110.404 Y127.386 E.01314
G1 X110.404 Y110.642 E.52498
G1 X109.985 Y110.642 E.01314
M73 P4 R25
G1 X109.985 Y127.386 E.52498
G1 X109.566 Y127.386 E.01314
G1 X109.566 Y110.642 E.52498
G1 X109.147 Y110.642 E.01314
G1 X109.147 Y127.386 E.52498
G1 X108.728 Y127.386 E.01314
G1 X108.728 Y110.642 E.52498
G1 X108.309 Y110.642 E.01314
G1 X108.309 Y127.386 E.52498
G1 X107.89 Y127.386 E.01314
G1 X107.89 Y110.642 E.52498
G1 X107.471 Y110.642 E.01314
G1 X107.471 Y127.386 E.52498
G1 X107.052 Y127.386 E.01314
G1 X107.052 Y110.642 E.52498
G1 X106.633 Y110.642 E.01314
G1 X106.633 Y127.386 E.52498
G1 X106.214 Y127.386 E.01314
G1 X106.214 Y110.642 E.52498
G1 X105.795 Y110.642 E.01314
G1 X105.795 Y127.386 E.52498
G1 X105.376 Y127.386 E.01314
G1 X105.376 Y90.878 E1.14466
G1 X105.795 Y90.878 E.01314
G1 X105.795 Y104.315 E.42129
G1 X106.214 Y104.315 E.01314
M73 P4 R24
G1 X106.214 Y90.878 E.42129
G1 X106.633 Y90.878 E.01314
G1 X106.633 Y104.315 E.42129
G1 X107.052 Y104.315 E.01314
G1 X107.052 Y90.878 E.42129
G1 X107.471 Y90.878 E.01314
G1 X107.471 Y104.315 E.42129
G1 X107.763 Y104.315 E.00914
G1 X107.763 Y102.008 E.07234
G1 X107.89 Y102.008 E.00399
G1 X107.89 Y90.878 E.34895
G1 X108.309 Y90.878 E.01314
M73 P5 R24
G1 X108.309 Y102.008 E.34895
G1 X108.728 Y102.008 E.01314
G1 X108.728 Y90.878 E.34895
G1 X109.147 Y90.878 E.01314
G1 X109.147 Y102.008 E.34895
G1 X109.566 Y102.008 E.01314
G1 X109.566 Y90.878 E.34895
G1 X109.985 Y90.878 E.01314
G1 X109.985 Y102.177 E.35427
M204 P1000
G1 E-2.24 F4200
;WIPE_START
G1 F7200
G1 X109.985 Y100.532 E-.912
;WIPE_END
G1 E-.048 F4200
G1 Z.4 F720
G1 X107.052 Y87.335 F9000
G1 Z.2 F720
G1 E3.2 F2400
M204 P800
G1 F1200
G1 X107.052 Y85.264 E.06493
G1 X106.633 Y85.264 E.01314
G1 X106.633 Y87.165 E.05961
G1 X106.214 Y87.165 E.01314
G1 X106.214 Y85.264 E.05961
G1 X105.795 Y85.264 E.01314
G1 X105.795 Y87.165 E.05961
G1 X105.376 Y87.165 E.01314
G1 X105.376 Y85.264 E.05961
G1 X104.957 Y85.264 E.01314
G1 X104.957 Y87.335 E.06493
M204 P1000
G1 X104.957 Y127.555 F9000
M204 P800
G1 F1200
G1 X104.957 Y90.709 E1.1553
M204 P1000
G1 X104.538 Y127.555 F9000
M204 P800
G1 F1200
G1 X104.538 Y85.264 E1.32601
G1 X104.12 Y85.264 E.01314
G1 X104.12 Y127.386 E1.32069
G1 X103.701 Y127.386 E.01314
G1 X103.701 Y85.264 E1.32069
G1 X103.282 Y85.264 E.01314
G1 X103.282 Y112.543 E.85531
G1 X102.863 Y112.543 E.01314
G1 X102.863 Y85.264 E.85531
G1 X102.444 Y85.264 E.01314
M73 P6 R24
G1 X102.444 Y112.543 E.85531
G1 X102.025 Y112.543 E.01314
G1 X102.025 Y85.264 E.85531
G1 X101.606 Y85.264 E.01314
G1 X101.606 Y112.543 E.85531
G1 X101.187 Y112.543 E.01314
G1 X101.187 Y85.264 E.85531
G1 X100.768 Y85.264 E.01314
G1 X100.768 Y105.622 E.6383
G1 X100.349 Y105.622 E.01314
G1 X100.349 Y85.264 E.6383
G1 X99.93 Y85.264 E.01314
G1 X99.93 Y105.622 E.6383
G1 X99.511 Y105.622 E.01314
G1 X99.511 Y85.264 E.6383
G1 X99.092 Y85.264 E.01314
G1 X99.092 Y105.622 E.6383
G1 X98.673 Y105.622 E.01314
G1 X98.673 Y85.264 E.6383
G1 X98.254 Y85.264 E.01314
G1 X98.254 Y105.622 E.6383
G1 X97.835 Y105.622 E.01314
G1 X97.835 Y85.264 E.6383
G1 X97.416 Y85.264 E.01314
G1 X97.416 Y108.929 E.74199
G1 X96.997 Y108.929 E.01314
M73 P7 R24
G1 X96.997 Y85.264 E.74199
G1 X96.578 Y85.264 E.01314
G1 X96.578 Y108.929 E.74199
G1 X96.159 Y108.929 E.01314
G1 X96.159 Y85.264 E.74199
G1 X95.74 Y85.264 E.01314
G1 X95.74 Y108.929 E.74199
G1 X95.321 Y108.929 E.01314
G1 X95.321 Y87.571 E.66966
G1 X94.902 Y87.571 E.01314
G1 X94.902 Y108.929 E.66966
G1 X94.483 Y108.929 E.01314
G1 X94.483 Y87.571 E.66966
G1 X94.064 Y87.571 E.01314
G1 X94.064 Y108.929 E.66966
G1 X93.645 Y108.929 E.01314
G1 X93.645 Y87.571 E.66966
G1 X93.326 Y87.571 E.00999
G1 X93.326 Y89.878 E.07234
G1 X93.226 Y89.878 E.00315
G1 X93.226 Y108.929 E.59732
G1 X92.807 Y108.929 E.01314
G1 X92.807 Y89.878 E.59732
G1 X92.388 Y89.878 E.01314
G1 X92.388 Y108.929 E.59732
G1 X91.969 Y108.929 E.01314
G1 X91.969 Y89.878 E.59732
G1 X91.55 Y89.878 E.01314
G1 X91.55 Y108.929 E.59732
G1 X91.131 Y108.929 E.01314
G1 X91.131 Y89.709 E.60264
M204 P1000
G1 E-2.24 F4200
;WIPE_START
M73 P8 R24
G1 F7200
G1 X91.131 Y91.354 E-.912
;WIPE_END
G1 E-.048 F4200
G1 Z.4 F720
G1 X103.282 Y127.555 F9000
G1 Z.2 F720
G1 E3.2 F2400
M204 P800
G1 F1200
G1 X103.282 Y118.563 E.28194
G1 X102.863 Y118.563 E.01314
G1 X102.863 Y127.386 E.27662
G1 X102.555 Y127.386 E.00965
G1 X102.555 Y125.078 E.07234
G1 X102.444 Y125.078 E.00349
G1 X102.444 Y118.563 E.20428
G1 X102.025 Y118.563 E.01314
G1 X102.025 Y125.078 E.20428
G1 X101.606 Y125.078 E.01314
G1 X101.606 Y118.563 E.20428
G1 X101.187 Y118.563 E.01314
G1 X101.187 Y125.078 E.20428
G1 X100.768 Y125.078 E.01314
G1 X100.768 Y118.563 E.20428
G1 X100.349 Y118.563 E.01314
G1 X100.349 Y125.078 E.20428
G1 X100.248 Y125.078 E.00317
G1 X100.248 Y122.771 E.07234
G1 X99.93 Y122.771 E.00997
G1 X99.93 Y118.563 E.13194
G1 X99.842 Y118.563 E.00276
G1 X99.842 Y115.563 E.09406
G1 X99.511 Y115.563 E.01038
G1 X99.511 Y122.771 E.22601
G1 X99.092 Y122.771 E.01314
G1 X99.092 Y115.563 E.22601
G1 X98.673 Y115.563 E.01314
G1 X98.673 Y122.771 E.22601
G1 X98.254 Y122.771 E.01314
G1 X98.254 Y115.394 E.23133
M204 P1000
G1 E-2.24 F4200
;WIPE_START
G1 F7200
G1 X98.254 Y117.039 E-.912
;WIPE_END
G1 E-.048 F4200
G1 Z.4 F720
G1 X100.768 Y112.713 F9000
G1 Z.2 F720
G1 E3.2 F2400
M204 P800
G1 F1200
G1 X100.768 Y111.472 E.03889
M204 P1000
G1 X100.417 Y110.939 F9000
M204 P800
;TYPE:Support material interface
;WIDTH:0.35
G1 F1200
G1 X100.417 Y109.449 E.03805
G1 X100.478 Y108.286 E.02974
G1 X100.417 Y108.262 E.00167
G1 X100.417 Y106.325 E.04946
G1 X99.91 Y106.325 E.01295
G1 X99.91 Y108.064 E.04442
G1 X99.894 Y108.058 E.00044
G1 X99.649 Y108.374 E.01021
M204 P1000
G1 X100.095 Y108.527 F9000
M204 P800
;TYPE:Support material
;WIDTH:0.42
G1 F1200
G1 X100.046 Y109.547 E.03202
G1 X99.648 Y109.483 E.01264
G1 X99.797 Y108.84 E.02068
G1 X99.962 Y108.559 E.01023
G1 X100.013 Y108.495 E.00257
G1 X100.043 Y108.506 E.00101
M204 P1000
G1 E-2.24 F4200
;WIPE_START
G1 F7200
G1 X100.013 Y108.495 E-.01779
G1 X99.962 Y108.559 E-.04538
G1 X99.797 Y108.84 E-.18089
G1 X99.648 Y109.483 E-.36546
G1 X100.046 Y109.547 E-.22347
G1 X100.053 Y109.404 E-.079
;WIPE_END
G1 E-.048 F4200
G1 Z.4 F720
G1 X99.757 Y106.325 F9000
G1 Z.2 F720
G1 E3.2 F2400
M204 P800
;TYPE:Support material interface
;WIDTH:0.35
G1 F1200
G1 X99.403 Y106.325 E.00903
G1 X99.403 Y108.911 E.06604
G1 X99.308 Y109.287 E.0099
G1 X99.192 Y110.047 E.01964
G1 X99.144 Y110.939 E.02281
G1 X98.896 Y110.939 E.00632
G1 X98.896 Y106.325 E.11782
G1 X98.389 Y106.325 E.01295
G1 X98.389 Y110.939 E.11782
M204 P1000
G1 X99.205 Y111.303 F9000
M204 P800
;TYPE:Support material
;WIDTH:0.42
G1 F1200
G1 X99.205 Y111.575 E.00855
G1 X97.908 Y111.575 E.04066
G1 X97.908 Y111.303 E.00855
G1 X99.149 Y111.303 E.0389
M204 P1000
G1 E-2.24 F4200
;WIPE_START
G1 F7200
M73 P8 R23
G1 X97.908 Y111.303 E-.68748
G1 X97.908 Y111.575 E-.15114
G1 X98.041 Y111.575 E-.07339
;WIPE_END
G1 E-.048 F4200
G1 Z.4 F720
G1 X100.699 Y113.671 F9000
G1 Z.2 F720
G1 E3.2 F2400
M204 P800
;TYPE:Support material interface
;WIDTH:0.35
G1 F1200
G1 X100.628 Y113.246 E.011
G1 X100.924 Y113.246 E.00757
G1 X100.924 Y114.72 E.03764
G1 X101.073 Y115.411 E.01804
G1 X101.072 Y115.736 E.0083
G1 X101.028 Y116.145 E.01049
G1 X100.924 Y116.163 E.00268
G1 X100.924 Y117.86 E.04333
G1 X101.431 Y117.86 E.01295
G1 X101.431 Y113.246 E.11782
G1 X101.938 Y113.246 E.01295
G1 X101.938 Y117.86 E.11782
G1 X102.446 Y117.86 E.01295
G1 X102.446 Y113.246 E.11782
G1 X102.852 Y113.246 E.01037
G1 X102.852 Y117.86 E.11782
G1 X102.599 Y117.86 E.00645
M204 P1000
G1 E-2.24 F4200
;WIPE_START
G1 F7200
G1 X102.852 Y117.86 E-.14002
G1 X102.852 Y116.467 E-.77198
;WIPE_END
G1 E-.048 F4200
G1 Z.4 F720
G1 X100.771 Y117.86 F9000
G1 Z.2 F720
G1 E3.2 F2400
M204 P800
G1 F1200
G1 X100.545 Y117.86 E.00577
G1 X100.545 Y116.232 E.04157
G1 X100.773 Y116.191 E.00593
M204 P1000
G1 E-2.24 F4200
;WIPE_START
G1 F7200
G1 X100.545 Y116.232 E-.12875
G1 X100.545 Y117.645 E-.78325
;WIPE_END
G1 E-.048 F4200
G1 Z.4 F720
G1 X119.001 Y115.201 F9000
G1 Z.2 F720
G1 E3.2 F2400
M204 P800
G1 F1200
G1 X119.001 Y115.553 E.009
G1 X119.179 Y115.553 E.00454
G1 X119.179 Y110.939 E.11782
G1 X119.686 Y110.939 E.01295
G1 X119.686 Y115.553 E.11782
G1 X120.193 Y115.553 E.01295
G1 X120.193 Y110.939 E.11782
G1 X120.7 Y110.939 E.01295
